X:1
T:Perry Street, LM
T:Perry Street, LM
T:Thoro Harris (1874-1955)
T:Public Domain Courtesy of the Cyber Hymnal™
C:Thoro Harris (1874-1955)
Z:Public Domain
Z:Courtesy of the Cyber Hymnal™
%%score ( 1 2 ) ( 3 4 )
L:1/8
Q:1/4=110
M:4/4
K:G
V:1 treble 
V:2 treble 
V:3 bass 
V:4 bass 
V:1
 D2 | [DB]2 [DG]2 [EA]2 [CF]2 | [B,G]2 (FE) [B,D]2 D2 | [Ec]2 [DA]2 [DB]2 [Ad]2 | %4
 [Ge]2 [G^c]2 !fermata![Fd]2 D2 | [DB]2 BA [B,G]2 D2 | [Dc]2 (cB) [DA]2 [DA]2 | %7
 [Dd]2 [Fc]2 [GB]2 (cA) | [DG]2 [DF]2 !fermata![DG]2 |] %9
V:2
 D2 | x8 | x2 C2 x D2 x | x8 | x6 D2 | x2 C2 x D2 x | x2 D2 x4 | x6 E2 | x6 |] %9
V:3
 D,2 | [G,,G,]2 [B,,G,]2 [A,,C]2 [D,A,]2 | [E,G,]2 [C,G,]2 [G,,G,]2 [B,,G,]2 | %3
 [A,,G,]2 [D,F,]2 G,2 [F,B,]2 | [E,B,]2 A,2 !fermata![D,A,]2 [D,F,]2 | %5
 G,2 [D,F,]2 [E,G,]2 [B,,G,]2 | [A,,F,]2 [G,,G,]2 [D,G,]2 [C,F,]2 | [B,,G,]2 A,2 [E,G,]2 (G,A,) | %8
 [D,B,]2 [D,C]2 !fermata![G,,B,]2 |] %9
V:4
 D,2 | x8 | x8 | x4 G,2 x2 | x2 A,2 x4 | G,2 x6 | x8 | x2 (D,^D,) x C,2 x | x6 |] %9

